images/pfd/pfd_adi_scaleh.svg

<?xml version="1.0" encoding="UTF-8" standalone="no"?>
<!-- Created with Inkscape (http://www.inkscape.org/) -->

<svg
   xmlns:dc="http://purl.org/dc/elements/1.1/"
   xmlns:cc="http://creativecommons.org/ns#"
   xmlns:rdf="http://www.w3.org/1999/02/22-rdf-syntax-ns#"
   xmlns:svg="http://www.w3.org/2000/svg"
   xmlns="http://www.w3.org/2000/svg"
   xmlns:sodipodi="http://sodipodi.sourceforge.net/DTD/sodipodi-0.dtd"
   xmlns:inkscape="http://www.inkscape.org/namespaces/inkscape"
   width="300"
   height="300"
   id="svg2"
   version="1.1"
   inkscape:version="0.48.4 r9939"
   sodipodi:docname="pfd_adi_scaleh.svg">
  <defs
     id="defs4" />
  <sodipodi:namedview
     id="base"
     pagecolor="#ffffff"
     bordercolor="#666666"
     borderopacity="1.0"
     inkscape:pageopacity="0.0"
     inkscape:pageshadow="2"
     inkscape:zoom="0.99999996"
     inkscape:cx="-70.956581"
     inkscape:cy="158.92538"
     inkscape:document-units="px"
     inkscape:current-layer="layer1"
     showgrid="false"
     inkscape:window-width="1920"
     inkscape:window-height="1030"
     inkscape:window-x="0"
     inkscape:window-y="0"
     inkscape:window-maximized="1"
     inkscape:snap-object-midpoints="false"
     inkscape:snap-smooth-nodes="false"
     inkscape:object-paths="false"
     inkscape:snap-midpoints="true"
     inkscape:snap-intersection-paths="true"
     inkscape:object-nodes="true"
     inkscape:snap-center="false"
     inkscape:snap-nodes="true"
     showguides="true"
     inkscape:guide-bbox="true" />
  <metadata
     id="metadata7">
    <rdf:RDF>
      <cc:Work
         rdf:about="">
        <dc:format>image/svg+xml</dc:format>
        <dc:type
           rdf:resource="http://purl.org/dc/dcmitype/StillImage" />
        <dc:title></dc:title>
      </cc:Work>
    </rdf:RDF>
  </metadata>
  <g
     inkscape:label="Layer 1"
     inkscape:groupmode="layer"
     id="layer1"
     transform="translate(0,-752.36218)">
    <g
       id="g7656"
       transform="translate(-1.1079628e-5,4.0000017)">
      <path
         inkscape:connector-curvature="0"
         id="path7559"
         d="m 125,938.36218 c -1.65685,0 -3,1.34315 -3,3 0,1.65685 1.34315,3 3,3 1.65685,0 3,-1.34315 3,-3 0,-1.65685 -1.34315,-3 -3,-3 z m 0,1 c 1.10457,0 2,0.89543 2,2 0,1.10457 -0.89543,2 -2,2 -1.10457,0 -2,-0.89543 -2,-2 0,-1.10457 0.89543,-2 2,-2 z"
         style="fill:#ffffff;fill-opacity:1;stroke:none" />
      <rect
         y="937.36218"
         x="149.5"
         height="8"
         width="1"
         id="rect7561"
         style="fill:#ffffff;fill-opacity:1;stroke:none" />
      <path
         inkscape:connector-curvature="0"
         id="path7559-0"
         d="m 100,938.36218 c -1.65685,0 -3,1.34315 -3,3 0,1.65685 1.34315,3 3,3 1.65685,0 3,-1.34315 3,-3 0,-1.65685 -1.34315,-3 -3,-3 z m 0,1 c 1.10457,0 2,0.89543 2,2 0,1.10457 -0.89543,2 -2,2 -1.10457,0 -2,-0.89543 -2,-2 0,-1.10457 0.89543,-2 2,-2 z"
         style="fill:#ffffff;fill-opacity:1;stroke:none" />
      <path
         inkscape:connector-curvature="0"
         id="path7559-2"
         d="m 175,938.36218 c 1.65685,0 3,1.34315 3,3 0,1.65685 -1.34315,3 -3,3 -1.65685,0 -3,-1.34315 -3,-3 0,-1.65685 1.34315,-3 3,-3 z m 0,1 c -1.10457,0 -2,0.89543 -2,2 0,1.10457 0.89543,2 2,2 1.10457,0 2,-0.89543 2,-2 0,-1.10457 -0.89543,-2 -2,-2 z"
         style="fill:#ffffff;fill-opacity:1;stroke:none" />
      <path
         inkscape:connector-curvature="0"
         id="path7559-0-7"
         d="m 200,938.36218 c 1.65685,0 3,1.34315 3,3 0,1.65685 -1.34315,3 -3,3 -1.65685,0 -3,-1.34315 -3,-3 0,-1.65685 1.34315,-3 3,-3 z m 0,1 c -1.10457,0 -2,0.89543 -2,2 0,1.10457 0.89543,2 2,2 1.10457,0 2,-0.89543 2,-2 0,-1.10457 -0.89543,-2 -2,-2 z"
         style="fill:#ffffff;fill-opacity:1;stroke:none" />
    </g>
  </g>
</svg>

<?xml version="1.0" encoding="utf-8"?>
<!-- Generator: Adobe Illustrator 24.3.0, SVG Export Plug-In . SVG Version: 6.00 Build 0)  -->
<svg version="1.1"
	 id="svg2" inkscape:version="0.48.4 r9939" sodipodi:docname="pfd_adi_scaleh.svg" xmlns:cc="http://creativecommons.org/ns#" xmlns:dc="http://purl.org/dc/elements/1.1/" xmlns:inkscape="http://www.inkscape.org/namespaces/inkscape" xmlns:rdf="http://www.w3.org/1999/02/22-rdf-syntax-ns#" xmlns:sodipodi="http://sodipodi.sourceforge.net/DTD/sodipodi-0.dtd" xmlns:svg="http://www.w3.org/2000/svg"
	 xmlns="http://www.w3.org/2000/svg" xmlns:xlink="http://www.w3.org/1999/xlink" x="0px" y="0px" viewBox="0 0 300 300"
	 style="enable-background:new 0 0 300 300;" xml:space="preserve">
<style type="text/css">
	.st0{fill:#FFFFFF;}
	.st1{fill:none;stroke:#FFFFFF;stroke-miterlimit:10;}
</style>
<sodipodi:namedview  bordercolor="#666666" borderopacity="1.0" id="base" inkscape:current-layer="layer1" inkscape:cx="-70.956581" inkscape:cy="158.92538" inkscape:document-units="px" inkscape:guide-bbox="true" inkscape:object-nodes="true" inkscape:object-paths="false" inkscape:pageopacity="0.0" inkscape:pageshadow="2" inkscape:snap-center="false" inkscape:snap-intersection-paths="true" inkscape:snap-midpoints="true" inkscape:snap-nodes="true" inkscape:snap-object-midpoints="false" inkscape:snap-smooth-nodes="false" inkscape:window-height="1030" inkscape:window-maximized="1" inkscape:window-width="1920" inkscape:window-x="0" inkscape:window-y="0" inkscape:zoom="0.99999996" pagecolor="#ffffff" showgrid="false" showguides="true">
	</sodipodi:namedview>
<g id="layer1" transform="translate(0,-752.36218)" inkscape:groupmode="layer" inkscape:label="Layer 1">
	<g id="g7656" transform="translate(-1.1079628e-5,4.0000017)">
		<path id="path7559" inkscape:connector-curvature="0" class="st0" d="M125,938.4c-1.7,0-3,1.3-3,3s1.3,3,3,3s3-1.3,3-3
			S126.7,938.4,125,938.4z M125,939.4c1.1,0,2,0.9,2,2s-0.9,2-2,2s-2-0.9-2-2S123.9,939.4,125,939.4z"/>
		<rect id="rect7561" x="149.5" y="937.4" class="st0" width="1" height="8"/>
		<path id="path7559-0" inkscape:connector-curvature="0" class="st0" d="M100,938.4c-1.7,0-3,1.3-3,3s1.3,3,3,3s3-1.3,3-3
			S101.7,938.4,100,938.4z M100,939.4c1.1,0,2,0.9,2,2s-0.9,2-2,2s-2-0.9-2-2S98.9,939.4,100,939.4z"/>
		<path id="path7559-2" inkscape:connector-curvature="0" class="st0" d="M175,938.4c1.7,0,3,1.3,3,3s-1.3,3-3,3s-3-1.3-3-3
			S173.3,938.4,175,938.4z M175,939.4c-1.1,0-2,0.9-2,2s0.9,2,2,2s2-0.9,2-2S176.1,939.4,175,939.4z"/>
		<path id="path7559-0-7" inkscape:connector-curvature="0" class="st0" d="M200,938.4c1.7,0,3,1.3,3,3s-1.3,3-3,3s-3-1.3-3-3
			S198.3,938.4,200,938.4z M200,939.4c-1.1,0-2,0.9-2,2s0.9,2,2,2s2-0.9,2-2S201.1,939.4,200,939.4z"/>
	</g>
</g>
<rect x="90.4" y="185.4" class="st1" width="120.2" height="15.1"/>
</svg>
